public/assets/img/case.svg

<svg xmlns="http://www.w3.org/2000/svg" width="32" height="32" viewBox="0 0 256 256"><defs><linearGradient id="a"><stop offset="0" stop-color="#b565a7"/><stop offset="1" stop-color="#5f4b8b"/></linearGradient></defs><path d="M224 118.31V200a8 8 0 0 1-8 8H40a8 8 0 0 1-8-8v-81.69A191.14 191.14 0 0 0 128 144a191.08 191.08 0 0 0 96-25.69z" fill="url(#a)" opacity=".25"/><path fill="#5f4b8b" d="M104 112a8 8 0 0 1 8-8h32a8 8 0 0 1 0 16h-32a8 8 0 0 1-8-8zm128-40v128a16 16 0 0 1-16 16H40a16 16 0 0 1-16-16V72a16 16 0 0 1 16-16h40v-8a24 24 0 0 1 24-24h48a24 24 0 0 1 24 24v8h40a16 16 0 0 1 16 16zM96 56h64v-8a8 8 0 0 0-8-8h-48a8 8 0 0 0-8 8zM40 72v41.62A184.07 184.07 0 0 0 128 136a184 184 0 0 0 88-22.39V72zm176 128v-68.37A200.25 200.25 0 0 1 128 152a200.19 200.19 0 0 1-88-20.36V200h176z"/><path fill="url(#a)" d="M104 112a8 8 0 0 1 8-8h32a8 8 0 0 1 0 16h-32a8 8 0 0 1-8-8zm128-40v128a16 16 0 0 1-16 16H40a16 16 0 0 1-16-16V72a16 16 0 0 1 16-16h40v-8a24 24 0 0 1 24-24h48a24 24 0 0 1 24 24v8h40a16 16 0 0 1 16 16zM96 56h64v-8a8 8 0 0 0-8-8h-48a8 8 0 0 0-8 8zM40 72v41.62A184.07 184.07 0 0 0 128 136a184 184 0 0 0 88-22.39V72zm176 128v-68.37A200.25 200.25 0 0 1 128 152a200.19 200.19 0 0 1-88-20.36V200h176z"/></svg>

<svg xmlns="http://www.w3.org/2000/svg" width="32" height="32" viewBox="0 0 256 256" focusable="false">
  <defs>
    <linearGradient id="gradient">
      <stop offset="0" stop-color="#b565a7"></stop>
      <stop offset="1" stop-color="#5f4b8b"></stop>
    </linearGradient>
  </defs>
  <path
    d="M224,118.31V200a8,8,0,0,1-8,8H40a8,8,0,0,1-8-8V118.31h0A191.14,191.14,0,0,0,128,144,191.08,191.08,0,0,0,224,118.31Z"
    fill="url(#gradient)"
    opacity="0.25"
  ></path>
  <path
    fill="#5f4b8b"
    id="case-solid"
    d="M104,112a8,8,0,0,1,8-8h32a8,8,0,0,1,0,16H112A8,8,0,0,1,104,112ZM232,72V200a16,16,0,0,1-16,16H40a16,16,0,0,1-16-16V72A16,16,0,0,1,40,56H80V48a24,24,0,0,1,24-24h48a24,24,0,0,1,24,24v8h40A16,16,0,0,1,232,72ZM96,56h64V48a8,8,0,0,0-8-8H104a8,8,0,0,0-8,8ZM40,72v41.62A184.07,184.07,0,0,0,128,136a184,184,0,0,0,88-22.39V72ZM216,200V131.63A200.25,200.25,0,0,1,128,152a200.19,200.19,0,0,1-88-20.36V200H216Z"
  ></path>
  <path
    fill="url(#gradient)"
    id="cookie-gradient"
    d="M104,112a8,8,0,0,1,8-8h32a8,8,0,0,1,0,16H112A8,8,0,0,1,104,112ZM232,72V200a16,16,0,0,1-16,16H40a16,16,0,0,1-16-16V72A16,16,0,0,1,40,56H80V48a24,24,0,0,1,24-24h48a24,24,0,0,1,24,24v8h40A16,16,0,0,1,232,72ZM96,56h64V48a8,8,0,0,0-8-8H104a8,8,0,0,0-8,8ZM40,72v41.62A184.07,184.07,0,0,0,128,136a184,184,0,0,0,88-22.39V72ZM216,200V131.63A200.25,200.25,0,0,1,128,152a200.19,200.19,0,0,1-88-20.36V200H216Z"
  ></path>
</svg>
